build/images/img/user.svg

<?xml version="1.0" encoding="utf-8"?>
<!-- Generated by IcoMoon.io -->
<!DOCTYPE svg PUBLIC "-//W3C//DTD SVG 1.1//EN" "http://www.w3.org/Graphics/SVG/1.1/DTD/svg11.dtd">
<svg version="1.1" xmlns="http://www.w3.org/2000/svg" xmlns:xlink="http://www.w3.org/1999/xlink" width="20" height="20" viewBox="0 0 20 20">
<path fill="#000000" d="M9.5 11c-3.033 0-5.5-2.467-5.5-5.5s2.467-5.5 5.5-5.5 5.5 2.467 5.5 5.5-2.467 5.5-5.5 5.5zM9.5 1c-2.481 0-4.5 2.019-4.5 4.5s2.019 4.5 4.5 4.5c2.481 0 4.5-2.019 4.5-4.5s-2.019-4.5-4.5-4.5z"></path>
<path fill="#000000" d="M17.5 20h-16c-0.827 0-1.5-0.673-1.5-1.5 0-0.068 0.014-1.685 1.225-3.3 0.705-0.94 1.67-1.687 2.869-2.219 1.464-0.651 3.283-0.981 5.406-0.981s3.942 0.33 5.406 0.981c1.199 0.533 2.164 1.279 2.869 2.219 1.211 1.615 1.225 3.232 1.225 3.3 0 0.827-0.673 1.5-1.5 1.5zM9.5 13c-3.487 0-6.060 0.953-7.441 2.756-1.035 1.351-1.058 2.732-1.059 2.746 0 0.274 0.224 0.498 0.5 0.498h16c0.276 0 0.5-0.224 0.5-0.5-0-0.012-0.023-1.393-1.059-2.744-1.382-1.803-3.955-2.756-7.441-2.756z"></path>
</svg>

<svg xmlns="http://www.w3.org/2000/svg" width="20" height="20"><path d="M9.5 11C6.467 11 4 8.533 4 5.5S6.467 0 9.5 0 15 2.467 15 5.5 12.533 11 9.5 11zm0-10C7.019 1 5 3.019 5 5.5S7.019 10 9.5 10 14 7.981 14 5.5 11.981 1 9.5 1zm8 19h-16C.673 20 0 19.327 0 18.5c0-.068.014-1.685 1.225-3.3.705-.94 1.67-1.687 2.869-2.219C5.558 12.33 7.377 12 9.5 12s3.942.33 5.406.981c1.199.533 2.164 1.279 2.869 2.219C18.986 16.815 19 18.432 19 18.5c0 .827-.673 1.5-1.5 1.5zm-8-7c-3.487 0-6.06.953-7.441 2.756C1.024 17.107 1.001 18.488 1 18.502a.5.5 0 00.5.498h16a.5.5 0 00.5-.5c0-.012-.023-1.393-1.059-2.744C15.559 13.953 12.986 13 9.5 13z"/></svg>
